X: 1915
T: Uşşak Seyir
C: Şefik Gürmeriç
O: Turkey
F: http://compmusic.upf.edu/node/140
N: ussak--seyir--sofyan--1--sefik_gurmeric
N: makam= ussak
N: form= seyir
N: usul= sofyan = 4/4
M: 4/4
L: 1/16
K: C _2/4B   
Q: 1/4=60
%%MIDI tuningsystem comma53
G4 A4 A3G d2dc  | c3B cBBA A8  | z4 A2_1/4B2 c2d2 e2f2  | 
w:   |   |   | 
e2de d2c2 d8  | e2f2 e2f2 g2f2 e2d2  | \
w:   |   | 
dfed c2d2 c2_1/4B^A B4  | 
w:   | 
z4 c2e2 d4 c2B2  | B3A AcBA A8  | z2G4A2 _1/4B2c2 dedc  | 
w:   |   |   | 
B3A ABAG G8  | z4 ^3/4F2G2 A4 A2B2  | \
w:   |   | 
A2G2 G2^3/4F2 F3E D4  | z2G4A2 _1/4B2c2 d2e2  | 
w:   |   | 
d2c2 c2B2 B2A2 AcBA  | A8 G4 c2BA  | A16  | |


